MonoIcons/scalable/status/audio-volume-low-symbolic-rtl.svg

<?xml version="1.0" encoding="UTF-8"?>
<svg height="16px" viewBox="0 0 16 16" width="16px" xmlns="http://www.w3.org/2000/svg">
    <path d="m 9 1.007812 c 0.296875 -0.003906 0.578125 0.125 0.769531 0.351563 l 3.230469 3.640625 h 1 c 1.09375 0 2 0.84375 2 2 v 2 c 0 1.089844 -0.910156 2 -2 2 h -1 l -3.230469 3.640625 c -0.210937 0.253906 -0.492187 0.363281 -0.769531 0.359375 z m -2.957031 2.980469 c 0.199219 0.011719 0.394531 0.074219 0.5625 0.203125 c 0.441406 0.332032 0.53125 0.960938 0.195312 1.402344 c -1.074219 1.425781 -1.074219 3.386719 0 4.8125 c 0.335938 0.441406 0.246094 1.070312 -0.195312 1.402344 c -0.441407 0.332031 -1.066407 0.242187 -1.398438 -0.195313 c -0.804687 -1.070312 -1.207031 -2.339843 -1.207031 -3.613281 s 0.402344 -2.542969 1.207031 -3.613281 c 0.183594 -0.246094 0.464844 -0.382813 0.753907 -0.398438 h 0.085937 z m 0 0" fill="#2e3436"/>
</svg>

<svg width="16" height="16" viewBox="0 0 16 16" fill="none" xmlns="http://www.w3.org/2000/svg">
<g clip-path="url(#clip0_231_1251)">
<path d="M9.00001 1.00765C9.29688 1.00375 9.57813 1.13265 9.76954 1.35922L13 4.99985H14C15.0938 4.99985 16 5.8436 16 6.99985V8.99985C16 10.0897 15.0899 10.9999 14 10.9999H13L9.76954 14.6405C9.5586 14.8944 9.27735 15.0038 9.00001 14.9999V1.00765ZM6.04297 3.98813C6.24219 3.99985 6.4375 4.06235 6.60547 4.19125C7.04688 4.52328 7.13672 5.15219 6.80078 5.5936C5.72656 7.01938 5.72656 8.98032 6.80078 10.4061C7.13672 10.8475 7.04688 11.4764 6.60547 11.8084C6.16406 12.1405 5.53906 12.0506 5.20703 11.6131C4.40234 10.5428 4 9.27329 4 7.99985C4 6.72641 4.40234 5.45688 5.20703 4.38657C5.39063 4.14047 5.67188 4.00375 5.96094 3.98813H6.04688H6.04297Z" fill="#2E3436"/>
</g>
<defs>
<clipPath id="clip0_231_1251">
<rect width="16" height="16" fill="white"/>
</clipPath>
</defs>
</svg>
